!!!OTL: Kum Ba Yah
!!!COM: unknown
!!!ODT: unknown
!!!YOR: The Folksong Fake Book
!!!YOY: 2000
!!!AST: Spiritual
!!!YEC: Brian Luke, 2001
**kern	**harm
*k[f#c#]	*k[f#c#]
*M3/4	*M3/4
*D:	*D:
*>A	*>A
8d	.
8f#	.
=1	=1
4a	I
4a	.
8b	IVc
8b	.
=2	=2
2a	I
8d	.
8f#	.
=3	=3
4a	.
4a	.
8g	ii7
8f#	.
=4	=4
2e	V7
8d	.
8f#	.
=5	=5
4a	I
4a	.
8b	IVc
8b	.
=6	=6
2a	I
4g	ii
=7	=7
8f#	Ic
4.d	.
8e	V7
8e	.
=8	=8
2d	I;
*-	*-
